art/dp/systems/mame-advmame.svg

<svg enable-background="new 0 0 685 182" height="936" viewBox="0 0 3840 936" width="3840" xmlns="http://www.w3.org/2000/svg" xmlns:xlink="http://www.w3.org/1999/xlink"><linearGradient id="a"><stop offset="0" stop-color="#7ed3f7"/><stop offset="1" stop-color="#003d7e"/></linearGradient><linearGradient id="b" gradientTransform="matrix(1 0 0 -1 654 325)" gradientUnits="userSpaceOnUse" x1="-115.667" x2="-115.667" xlink:href="#a" y1="311.5" y2="238"/><linearGradient id="c" gradientTransform="matrix(1 0 0 -1 654 325)" gradientUnits="userSpaceOnUse" x1="-374.1665" x2="-374.1665" xlink:href="#a" y1="224.5" y2="151.5"/><linearGradient id="d" gradientTransform="matrix(1 0 0 -1 654 325)" gradientUnits="userSpaceOnUse" x1="-177.166" x2="-177.166" xlink:href="#a" y1="224.5" y2="151.5"/><linearGradient id="e" gradientTransform="matrix(1 0 0 -1 654 325)" gradientUnits="userSpaceOnUse" x1="-626.74951" x2="-626.74951" xlink:href="#a" y1="311.5" y2="238"/><linearGradient id="f" gradientTransform="matrix(1 0 0 -1 654 325)" gradientUnits="userSpaceOnUse" x1="-270.74951" x2="-270.74951" xlink:href="#a" y1="311.5" y2="238"/><linearGradient id="g" gradientTransform="matrix(1 0 0 -1 654 325)" gradientUnits="userSpaceOnUse" x1="-308.75" x2="-308.75" xlink:href="#a" y1="224.5" y2="151.5"/><linearGradient id="h" gradientTransform="matrix(1 0 0 -1 654 325)" gradientUnits="userSpaceOnUse" x1="-593.4165" x2="-593.4165" xlink:href="#a" y1="311.5" y2="238"/><linearGradient id="i" gradientTransform="matrix(1 0 0 -1 654 325)" gradientUnits="userSpaceOnUse" x1="-274.91699" x2="-274.91699" xlink:href="#a" y1="224.5" y2="151.5"/><linearGradient id="j" gradientTransform="matrix(1 0 0 -1 654 325)" gradientUnits="userSpaceOnUse" x1="-303.91699" x2="-303.91699" xlink:href="#a" y1="311.5" y2="238"/><linearGradient id="k" gradientTransform="matrix(1 0 0 -1 654 325)" gradientUnits="userSpaceOnUse" x1="-498.50049" x2="-498.50049" xlink:href="#a" y1="311.84671" y2="236.83659"/><linearGradient id="l" gradientTransform="matrix(1 0 0 -1 654 325)" gradientUnits="userSpaceOnUse" x1="-403" x2="-403" xlink:href="#a" y1="311.5" y2="238"/><linearGradient id="m" gradientTransform="matrix(1 0 0 -1 654 325)" gradientUnits="userSpaceOnUse" x1="-369.74951" x2="-369.74951" xlink:href="#a" y1="311.5" y2="238"/><linearGradient id="n" gradientTransform="matrix(1 0 0 -1 654 325)" gradientUnits="userSpaceOnUse" x1="-208.3335" x2="-208.3335" xlink:href="#a" y1="311.5" y2="238"/><linearGradient id="o" gradientTransform="matrix(1 0 0 -1 654 325)" gradientUnits="userSpaceOnUse" x1="-24" x2="-24" xlink:href="#a" y1="311.5" y2="238"/><linearGradient id="p" gradientTransform="matrix(1 0 0 -1 654 325)" gradientUnits="userSpaceOnUse" x1="-82" x2="-82" xlink:href="#a" y1="224.5" y2="151.5"/><g transform="matrix(5.8233434 0 0 5.81966496867 -78.143445 -75.64982507111)"><path d="m503.083 14.5c-3.728 0-6.75 3.855-6.75 7.583v58.834c0 3.728 3.022 6.915 6.75 6.915h77.25v-20.5h-61v-32.665h61v-20.167z" fill="url(#b)"/><path d="m503.083 88.834c-4.317-.017-7.745-3.648-7.751-7.917v-58.833c.031-4.223 3.293-8.512 7.751-8.584v1 1c-1.508-.002-2.937.785-4.014 2.043-1.074 1.252-1.742 2.948-1.738 4.541v58.833c.006 3.188 2.611 5.908 5.751 5.915h76.249v-18.501h-61v-34.665h61v-18.166h-76.249v-1-1h78.249v22.166h-61v30.666h61v22.503z"/><path d="m235 107.084c0-3.729 3.022-7.584 6.75-7.584h83.584v73.333h-23.5v-53.167h-10.167v53.167h-23.667v-53.167h-10.5v53.167h-23.167z" fill="url(#c)"/><path d="m267 173.833v-53.17h-8.501v53.17h-25.177l.678-66.75h-.002c.031-4.224 3.294-8.513 7.752-8.585h84.583v75.333h-25.502v-53.166h-8.166v53.168zm35.834-55.168-.002 53.167h21.501v-71.332h-82.582c-1.509-.004-2.937.784-4.014 2.043-1.075 1.251-1.743 2.947-1.736 4.54h-1l.998.011-.656 64.738h21.157v-53.167h12.5v53.167h21.666v-53.167z"/><path d="m432 107.084c0-3.729 3.021-7.584 6.75-7.584h83.584v73.333h-23.5v-53.167h-10.167v53.167h-23.667v-53.167h-10.5v53.167h-23.166z" fill="url(#d)"/><path d="m463.999 173.833v-53.17h-8.499v53.17h-25.177l.677-66.761c.036-4.219 3.297-8.502 7.75-8.574h84.584v75.333h-25.5v-53.166h-8.167v53.168zm35.834-55.168v53.167h21.501v-71.332h-82.584c-1.507-.004-2.936.784-4.014 2.043-1.073 1.251-1.741 2.947-1.736 4.54h-1l1 .011-.656 64.738h21.156v-53.167h12.5l-.002 53.167h21.668v-53.167z"/><path d="m15.167 14.5h24.167v24.834h-24.167z" fill="url(#e)"/><path d="m14.166 40.334v-26.834h26.167v25.834 1zm25.167-1v-1zm-23.167-1h22.168v-22.835h-22.168z"/><path d="m371.167 14.5h24.167v24.834h-24.167z" fill="url(#f)"/><path d="m370.166 40.334v-26.834h26.167v25.834 1zm25.167-1v-1zm-23.166-1h22.166v-22.835h-22.166z"/><path d="m333.166 99.5h24.168v24.834h-24.168z" fill="url(#g)"/><path d="m332.166 125.334v-26.835h26.167v25.835 1zm25.169-1v-1.002zm-23.17-1.002h22.17v-22.832h-22.17z"/><path d="m15.5 87.833 58.667-73.333h31.5v73.333h-51l14.833-19.333h12.167v-29.167l-38.667 48.5z" fill="url(#h)"/><path d="m52.636 88.832 16.37-21.334h11.66v-25.308l-37.184 46.642h-27.983v-.999l.781.623-.781-.623v.999h-2.08l60.267-75.333h32.98v75.333zm-10.119-1.999 40.149-50.357v33.024l-12.675-.003-13.298 17.334h47.973v-71.332h-30.02l-57.067 71.334z"/><path d="m334 172.833 58.666-73.333h31.5v73.333h-51l14.834-19.333h12.166v-29.166l-38.666 48.499z" fill="url(#i)"/><path d="m371.136 173.832 16.371-21.334h11.657v-25.307l-37.183 46.641h-27.981v-1l.781.624-.781-.624v1h-2.081l60.265-75.333h32.981v75.333zm-10.118-1.999 40.148-50.356v33.023l-12.674-.002-13.3 17.332h47.973v-71.331h-30.019l-57.067 71.334z"/><path d="m395.166 87.833-58.666-73.333h-31.5v73.333h51l-14.834-19.333h-12.166v-29.167l38.666 48.5z" fill="url(#j)"/><path d="m367.183 88.832-37.185-46.64v25.306h11.66l16.37 21.334h-54.03v-75.333h32.98l58.967 73.708-.781.626v-1 1l.781-.626 1.302 1.625zm.963-1.999h24.938l-57.067-71.334h-30.02v71.332h47.973l-13.297-17.331h-12.675v-33.026z"/><path d="m190.083 13.999h-76.416v47.667h23.666v-26.166h36.333v33.166l-59.999.002v19.665h76.416c4.022-.007 7.247-3.417 7.249-7.414v-58.835c-.015-3.977-3.157-8.048-7.249-8.085z" fill="url(#k)"/><path d="m112.667 89.332v-21.664l59.999-.002v-31.167h-34.333v26.167h-25.666v-49.667h77.416v.999l.01-.999c4.793.101 8.201 4.625 8.238 9.085v58.835c-.006 4.534-3.64 8.395-8.249 8.413zm2-2h75.414c3.439-.004 6.254-2.954 6.252-6.413v-58.831c.006-3.498-2.871-7.095-6.258-7.089h-75.408v45.667h21.666v-26.167h38.333v35.167h-59.999z"/><path d="m206 14.5v73.333h32.833l57.167-73.333h-27.333l-39.5 47.834v-47.834z" fill="url(#l)"/><path d="m204.999 88.834v-74.334-1h25.169v46.049l38.027-46.049h29.853l-58.726 75.334zm2-2.002h31.346l55.606-71.332h-24.813l-40.972 49.614v-49.614h-21.166zm-.999-71.332v-1z"/><path d="m272.167 62.667h24.167v25.166h-24.167z" fill="url(#m)"/><path d="m271.166 88.834v-27.169h26.167v26.167 1.002zm25.167-1.002v-1zm-23.167-1h22.167v-23.166h-22.167z"/><path d="m403.833 87.833v-73.333h27.834l32.166 39.167v-39.167h23.667v73.333h-25.333l-35.167-42.666v42.666z" fill="url(#n)"/><path d="m461.695 88.834-33.695-40.881v40.881h-24.167v-1.002h1-1v1.002h-1v-75.334h29.305l30.695 37.372v-37.372h25.667v75.334zm-56.862-2.002 21.167-.003v-44.45l36.639 44.45h23.859v-71.329h-21.665v40.961l-33.639-40.961h-26.361z"/><path d="m588.167 14.5v73.333h83.666v-19.666h-60.166v-7.5h60.166v-20.167h-60.333v-5.667h60.333v-20.333z" fill="url(#o)"/><path d="m587.167 88.834v-74.334-1h85.667v22.333h-60.335v3.667h60.335v22.167h-60.168v5.499h60.168v21.668zm2-2.005h81.666v-17.663h-60.166v-9.501h60.166v-18.165h-60.333v-7.667h60.333v-18.333h-81.666zm-1-71.329v-1z"/><path d="m530.166 99.5v73.333h83.668v-19.666h-60.168v-7.5h60.168v-20.167h-60.334v-5.666h60.334v-20.334z" fill="url(#p)"/><path d="m529.165 173.833v-74.333-1.002h85.669v22.336l-60.334-.002v3.667h60.334v22.167l-60.169-.003v5.502h60.169v21.668zm2-2.001h81.668v-17.667h-60.167v-9.499h60.167v-18.167h-60.333v-7.667h60.332v-18.332h-81.668zm-1-71.332v-1z"/></g></svg>

<?xml version="1.0" encoding="UTF-8" standalone="no"?>
<svg
   enable-background="new 0 0 685 182"
   height="936"
   viewBox="0 0 3840 936"
   width="3840"
   version="1.1"
   id="svg31"
   sodipodi:docname="mame-advmame.svg"
   inkscape:version="1.3.2 (091e20e, 2023-11-25)"
   xmlns:inkscape="http://www.inkscape.org/namespaces/inkscape"
   xmlns:sodipodi="http://sodipodi.sourceforge.net/DTD/sodipodi-0.dtd"
   xmlns:xlink="http://www.w3.org/1999/xlink"
   xmlns="http://www.w3.org/2000/svg"
   xmlns:svg="http://www.w3.org/2000/svg">
  <defs
     id="defs31" />
  <sodipodi:namedview
     id="namedview31"
     pagecolor="#ffffff"
     bordercolor="#000000"
     borderopacity="0.25"
     inkscape:showpageshadow="2"
     inkscape:pageopacity="0.0"
     inkscape:pagecheckerboard="0"
     inkscape:deskcolor="#d1d1d1"
     inkscape:zoom="0.24557292"
     inkscape:cx="1922.0361"
     inkscape:cy="468.29268"
     inkscape:window-width="1312"
     inkscape:window-height="449"
     inkscape:window-x="0"
     inkscape:window-y="23"
     inkscape:window-maximized="0"
     inkscape:current-layer="svg31" />
  <linearGradient
     id="a">
    <stop
       offset="0"
       stop-color="#7ed3f7"
       id="stop1" />
    <stop
       offset="1"
       stop-color="#003d7e"
       id="stop2" />
  </linearGradient>
  <linearGradient
     id="b"
     gradientTransform="matrix(1,0,0,-1,654,325)"
     gradientUnits="userSpaceOnUse"
     x1="-115.667"
     x2="-115.667"
     xlink:href="#a"
     y1="311.5"
     y2="238" />
  <linearGradient
     id="c"
     gradientTransform="matrix(1,0,0,-1,654,325)"
     gradientUnits="userSpaceOnUse"
     x1="-374.1665"
     x2="-374.1665"
     xlink:href="#a"
     y1="224.5"
     y2="151.5" />
  <linearGradient
     id="d"
     gradientTransform="matrix(1,0,0,-1,654,325)"
     gradientUnits="userSpaceOnUse"
     x1="-177.166"
     x2="-177.166"
     xlink:href="#a"
     y1="224.5"
     y2="151.5" />
  <linearGradient
     id="e"
     gradientTransform="matrix(1,0,0,-1,654,325)"
     gradientUnits="userSpaceOnUse"
     x1="-626.74951"
     x2="-626.74951"
     xlink:href="#a"
     y1="311.5"
     y2="238" />
  <linearGradient
     id="f"
     gradientTransform="matrix(1,0,0,-1,654,325)"
     gradientUnits="userSpaceOnUse"
     x1="-270.74951"
     x2="-270.74951"
     xlink:href="#a"
     y1="311.5"
     y2="238" />
  <linearGradient
     id="g"
     gradientTransform="matrix(1,0,0,-1,654,325)"
     gradientUnits="userSpaceOnUse"
     x1="-308.75"
     x2="-308.75"
     xlink:href="#a"
     y1="224.5"
     y2="151.5" />
  <linearGradient
     id="h"
     gradientTransform="matrix(1,0,0,-1,654,325)"
     gradientUnits="userSpaceOnUse"
     x1="-593.4165"
     x2="-593.4165"
     xlink:href="#a"
     y1="311.5"
     y2="238" />
  <linearGradient
     id="i"
     gradientTransform="matrix(1,0,0,-1,654,325)"
     gradientUnits="userSpaceOnUse"
     x1="-274.91699"
     x2="-274.91699"
     xlink:href="#a"
     y1="224.5"
     y2="151.5" />
  <linearGradient
     id="j"
     gradientTransform="matrix(1,0,0,-1,654,325)"
     gradientUnits="userSpaceOnUse"
     x1="-303.91699"
     x2="-303.91699"
     xlink:href="#a"
     y1="311.5"
     y2="238" />
  <linearGradient
     id="k"
     gradientTransform="matrix(1,0,0,-1,654,325)"
     gradientUnits="userSpaceOnUse"
     x1="-498.50049"
     x2="-498.50049"
     xlink:href="#a"
     y1="311.84671"
     y2="236.83659" />
  <linearGradient
     id="l"
     gradientTransform="matrix(1,0,0,-1,654,325)"
     gradientUnits="userSpaceOnUse"
     x1="-403"
     x2="-403"
     xlink:href="#a"
     y1="311.5"
     y2="238" />
  <linearGradient
     id="m"
     gradientTransform="matrix(1,0,0,-1,654,325)"
     gradientUnits="userSpaceOnUse"
     x1="-369.74951"
     x2="-369.74951"
     xlink:href="#a"
     y1="311.5"
     y2="238" />
  <linearGradient
     id="n"
     gradientTransform="matrix(1,0,0,-1,654,325)"
     gradientUnits="userSpaceOnUse"
     x1="-208.3335"
     x2="-208.3335"
     xlink:href="#a"
     y1="311.5"
     y2="238" />
  <linearGradient
     id="o"
     gradientTransform="matrix(1,0,0,-1,654,325)"
     gradientUnits="userSpaceOnUse"
     x1="-24"
     x2="-24"
     xlink:href="#a"
     y1="311.5"
     y2="238" />
  <linearGradient
     id="p"
     gradientTransform="matrix(1,0,0,-1,654,325)"
     gradientUnits="userSpaceOnUse"
     x1="-82"
     x2="-82"
     xlink:href="#a"
     y1="224.5"
     y2="151.5" />
  <g
     id="g32"
     transform="scale(1,0.99936833)">
    <g
       transform="matrix(5.8233434,0,0,5.8233434,-78.143445,-75.697641)"
       id="g31">
      <path
         d="m 503.083,14.5 c -3.728,0 -6.75,3.855 -6.75,7.583 v 58.834 c 0,3.728 3.022,6.915 6.75,6.915 h 77.25 v -20.5 h -61 V 34.667 h 61 V 14.5 Z"
         fill="url(#b)"
         id="path2"
         style="fill:url(#b)" />
      <path
         d="m 503.083,88.834 c -4.317,-0.017 -7.745,-3.648 -7.751,-7.917 V 22.084 c 0.031,-4.223 3.293,-8.512 7.751,-8.584 v 1 1 c -1.508,-0.002 -2.937,0.785 -4.014,2.043 -1.074,1.252 -1.742,2.948 -1.738,4.541 v 58.833 c 0.006,3.188 2.611,5.908 5.751,5.915 h 76.249 V 68.331 h -61 V 33.666 h 61 V 15.5 h -76.249 v -1 -1 h 78.249 v 22.166 h -61 v 30.666 h 61 v 22.503 z"
         id="path3" />
      <path
         d="m 235,107.084 c 0,-3.729 3.022,-7.584 6.75,-7.584 h 83.584 v 73.333 h -23.5 v -53.167 h -10.167 v 53.167 H 268 v -53.167 h -10.5 v 53.167 h -23.167 z"
         fill="url(#c)"
         id="path4"
         style="fill:url(#c)" />
      <path
         d="m 267,173.833 v -53.17 h -8.501 v 53.17 H 233.322 L 234,107.083 h -0.002 c 0.031,-4.224 3.294,-8.513 7.752,-8.585 h 84.583 v 75.333 h -25.502 v -53.166 h -8.166 v 53.168 z m 35.834,-55.168 -0.002,53.167 h 21.501 V 100.5 h -82.582 c -1.509,-0.004 -2.937,0.784 -4.014,2.043 -1.075,1.251 -1.743,2.947 -1.736,4.54 h -1 l 0.998,0.011 -0.656,64.738 H 256.5 V 118.665 H 269 v 53.167 h 21.666 v -53.167 z"
         id="path5" />
      <path
         d="m 432,107.084 c 0,-3.729 3.021,-7.584 6.75,-7.584 h 83.584 v 73.333 h -23.5 v -53.167 h -10.167 v 53.167 H 465 v -53.167 h -10.5 v 53.167 h -23.166 z"
         fill="url(#d)"
         id="path6"
         style="fill:url(#d)" />
      <path
         d="m 463.999,173.833 v -53.17 H 455.5 v 53.17 H 430.323 L 431,107.072 c 0.036,-4.219 3.297,-8.502 7.75,-8.574 h 84.584 v 75.333 h -25.5 v -53.166 h -8.167 v 53.168 z m 35.834,-55.168 v 53.167 h 21.501 V 100.5 H 438.75 c -1.507,-0.004 -2.936,0.784 -4.014,2.043 -1.073,1.251 -1.741,2.947 -1.736,4.54 h -1 l 1,0.011 -0.656,64.738 H 453.5 V 118.665 H 466 l -0.002,53.167 h 21.668 v -53.167 z"
         id="path7" />
      <path
         d="M 15.167,14.5 H 39.334 V 39.334 H 15.167 Z"
         fill="url(#e)"
         id="path8"
         style="fill:url(#e)" />
      <path
         d="M 14.166,40.334 V 13.5 h 26.167 v 25.834 1 z m 25.167,-1 v -1 z m -23.167,-1 H 38.334 V 15.499 H 16.166 Z"
         id="path9" />
      <path
         d="m 371.167,14.5 h 24.167 v 24.834 h -24.167 z"
         fill="url(#f)"
         id="path10"
         style="fill:url(#f)" />
      <path
         d="M 370.166,40.334 V 13.5 h 26.167 v 25.834 1 z m 25.167,-1 v -1 z m -23.166,-1 h 22.166 V 15.499 h -22.166 z"
         id="path11" />
      <path
         d="m 333.166,99.5 h 24.168 v 24.834 h -24.168 z"
         fill="url(#g)"
         id="path12"
         style="fill:url(#g)" />
      <path
         d="M 332.166,125.334 V 98.499 h 26.167 v 25.835 1 z m 25.169,-1 v -1.002 z m -23.17,-1.002 h 22.17 V 100.5 h -22.17 z"
         id="path13" />
      <path
         d="M 15.5,87.833 74.167,14.5 h 31.5 v 73.333 h -51 L 69.5,68.5 H 81.667 V 39.333 L 43,87.833 Z"
         fill="url(#h)"
         id="path14"
         style="fill:url(#h)" />
      <path
         d="m 52.636,88.832 16.37,-21.334 h 11.66 V 42.19 L 43.482,88.832 H 15.499 v -0.999 l 0.781,0.623 -0.781,-0.623 v 0.999 h -2.08 L 73.686,13.499 h 32.98 V 88.832 Z M 42.517,86.833 82.666,36.476 V 69.5 L 69.991,69.497 56.693,86.831 h 47.973 V 15.499 H 74.646 L 17.579,86.833 Z"
         id="path15" />
      <path
         d="M 334,172.833 392.666,99.5 h 31.5 v 73.333 h -51 L 388,153.5 h 12.166 V 124.334 L 361.5,172.833 Z"
         fill="url(#i)"
         id="path16"
         style="fill:url(#i)" />
      <path
         d="m 371.136,173.832 16.371,-21.334 h 11.657 v -25.307 l -37.183,46.641 H 334 v -1 l 0.781,0.624 -0.781,-0.624 v 1 h -2.081 l 60.265,-75.333 h 32.981 v 75.333 z m -10.118,-1.999 40.148,-50.356 V 154.5 l -12.674,-0.002 -13.3,17.332 h 47.973 v -71.331 h -30.019 l -57.067,71.334 z"
         id="path17" />
      <path
         d="M 395.166,87.833 336.5,14.5 H 305 v 73.333 h 51 L 341.166,68.5 H 329 V 39.333 l 38.666,48.5 z"
         fill="url(#j)"
         id="path18"
         style="fill:url(#j)" />
      <path
         d="m 367.183,88.832 -37.185,-46.64 v 25.306 h 11.66 l 16.37,21.334 h -54.03 V 13.499 h 32.98 l 58.967,73.708 -0.781,0.626 v -1 1 l 0.781,-0.626 1.302,1.625 z m 0.963,-1.999 h 24.938 L 336.017,15.499 h -30.02 V 86.831 H 353.97 L 340.673,69.5 H 327.998 V 36.474 Z"
         id="path19" />
      <path
         d="m 190.083,13.999 h -76.416 v 47.667 h 23.666 V 35.5 h 36.333 v 33.166 l -59.999,0.002 v 19.665 h 76.416 c 4.022,-0.007 7.247,-3.417 7.249,-7.414 V 22.084 c -0.015,-3.977 -3.157,-8.048 -7.249,-8.085 z"
         fill="url(#k)"
         id="path20"
         style="fill:url(#k)" />
      <path
         d="M 112.667,89.332 V 67.668 l 59.999,-0.002 V 36.499 H 138.333 V 62.666 H 112.667 V 12.999 h 77.416 v 0.999 l 0.01,-0.999 c 4.793,0.101 8.201,4.625 8.238,9.085 v 58.835 c -0.006,4.534 -3.64,8.395 -8.249,8.413 z m 2,-2 h 75.414 c 3.439,-0.004 6.254,-2.954 6.252,-6.413 V 22.088 c 0.006,-3.498 -2.871,-7.095 -6.258,-7.089 h -75.408 v 45.667 h 21.666 V 34.499 h 38.333 v 35.167 h -59.999 z"
         id="path21" />
      <path
         d="m 206,14.5 v 73.333 h 32.833 L 296,14.5 h -27.333 l -39.5,47.834 V 14.5 Z"
         fill="url(#l)"
         id="path22"
         style="fill:url(#l)" />
      <path
         d="M 204.999,88.834 V 14.5 v -1 h 25.169 V 59.549 L 268.195,13.5 h 29.853 l -58.726,75.334 z m 2,-2.002 h 31.346 L 293.951,15.5 H 269.138 L 228.166,65.114 V 15.5 H 207 Z M 206,15.5 v -1 z"
         id="path23" />
      <path
         d="m 272.167,62.667 h 24.167 v 25.166 h -24.167 z"
         fill="url(#m)"
         id="path24"
         style="fill:url(#m)" />
      <path
         d="M 271.166,88.834 V 61.665 h 26.167 v 26.167 1.002 z m 25.167,-1.002 v -1 z m -23.167,-1 h 22.167 V 63.666 h -22.167 z"
         id="path25" />
      <path
         d="M 403.833,87.833 V 14.5 h 27.834 l 32.166,39.167 V 14.5 H 487.5 V 87.833 H 462.167 L 427,45.167 v 42.666 z"
         fill="url(#n)"
         id="path26"
         style="fill:url(#n)" />
      <path
         d="M 461.695,88.834 428,47.953 v 40.881 h -24.167 v -1.002 h 1 -1 v 1.002 h -1 V 13.5 h 29.305 l 30.695,37.372 V 13.5 H 488.5 V 88.834 Z M 404.833,86.832 426,86.829 v -44.45 l 36.639,44.45 h 23.859 V 15.5 H 464.833 V 56.461 L 431.194,15.5 h -26.361 z"
         id="path27" />
      <path
         d="m 588.167,14.5 v 73.333 h 83.666 V 68.167 h -60.166 v -7.5 h 60.166 V 40.5 H 611.5 v -5.667 h 60.333 V 14.5 Z"
         fill="url(#o)"
         id="path28"
         style="fill:url(#o)" />
      <path
         d="M 587.167,88.834 V 14.5 v -1 h 85.667 V 35.833 H 612.499 V 39.5 h 60.335 v 22.167 h -60.168 v 5.499 h 60.168 v 21.668 z m 2,-2.005 h 81.666 V 69.166 h -60.166 v -9.501 h 60.166 V 41.5 H 610.5 v -7.667 h 60.333 V 15.5 h -81.666 z m -1,-71.329 v -1 z"
         id="path29" />
      <path
         d="m 530.166,99.5 v 73.333 h 83.668 v -19.666 h -60.168 v -7.5 h 60.168 V 125.5 H 553.5 v -5.666 h 60.334 V 99.5 Z"
         fill="url(#p)"
         id="path30"
         style="fill:url(#p)" />
      <path
         d="M 529.165,173.833 V 99.5 98.498 h 85.669 v 22.336 L 554.5,120.832 v 3.667 h 60.334 v 22.167 l -60.169,-0.003 v 5.502 h 60.169 v 21.668 z m 2,-2.001 h 81.668 v -17.667 h -60.167 v -9.499 h 60.167 V 126.499 H 552.5 v -7.667 h 60.332 V 100.5 h -81.668 z m -1,-71.332 v -1 z"
         id="path31" />
    </g>
  </g>
</svg>
